img/geral/logo.svg

<svg width="55" height="60" viewBox="0 0 55 60" fill="none" xmlns="http://www.w3.org/2000/svg">
<path d="M0.570459 31.8296H5.70458C5.70458 33.2301 6.08489 34.5245 6.8455 35.7128C7.60611 36.9435 8.68365 37.9196 10.0781 38.6411C11.4726 39.405 13.1205 39.787 15.0221 39.787C16.501 39.787 17.9589 39.4262 19.3956 38.7048C20.8323 37.9833 22.0155 36.8374 22.9451 35.2672C23.917 33.7393 24.4029 31.7447 24.4029 29.2832V0.636593H29.4737V29.2832C29.4737 32.6359 28.7765 35.4369 27.382 37.6862C25.9876 39.9779 24.1917 41.6967 21.9943 42.8426C19.797 43.9885 17.4729 44.5614 15.0221 44.5614C12.1909 44.5614 9.67667 44.0309 7.47934 42.9699C5.32428 41.9089 3.63403 40.4023 2.4086 38.4501C1.18317 36.5404 0.570459 34.3335 0.570459 31.8296ZM0 15.2782C0 12.0952 0.654971 9.37912 1.96491 7.12982C3.27485 4.83809 5.02849 3.07686 7.22581 1.84612C9.42313 0.615372 11.8317 0 14.4516 0C16.9025 0 19.0364 0.615372 20.8534 1.84612C22.6704 3.07686 24.086 4.83809 25.1002 7.12982C26.1566 9.37912 26.6848 12.0952 26.6848 15.2782C26.6848 18.4187 26.1566 21.1348 25.1002 23.4266C24.086 25.7183 22.6704 27.4795 20.8534 28.7103C19.0364 29.941 16.9025 30.5564 14.4516 30.5564C11.8317 30.5564 9.42313 29.941 7.22581 28.7103C5.02849 27.4795 3.27485 25.7183 1.96491 23.4266C0.654971 21.1348 0 18.4187 0 15.2782ZM5.13413 15.2782C5.13413 17.5275 5.57782 19.4373 6.4652 21.0075C7.39483 22.5778 8.62026 23.7661 10.1415 24.5724C11.6627 25.3788 13.3107 25.782 15.0855 25.782C16.5644 25.782 18.0223 25.3788 19.459 24.5724C20.8957 23.7661 22.0789 22.5778 23.0085 21.0075C23.9381 19.4373 24.4029 17.5275 24.4029 15.2782C24.4029 13.5806 24.1283 12.0952 23.5789 10.8221C23.0296 9.50643 22.2901 8.40301 21.3605 7.51178C20.4731 6.62055 19.4801 5.94152 18.3814 5.47469C17.2828 5.00785 16.1841 4.77444 15.0855 4.77444C13.3107 4.77444 11.6627 5.17761 10.1415 5.98396C8.62026 6.79031 7.39483 7.97861 6.4652 9.54887C5.57782 11.1191 5.13413 13.0289 5.13413 15.2782Z" fill="white"/>
<path d="M53.4646 47.2682H48.3305C48.3305 48.6687 47.9502 49.9631 47.1896 51.1514C46.429 52.3821 45.3515 53.3582 43.957 54.0797C42.5625 54.8436 40.9146 55.2256 39.013 55.2256C37.5341 55.2256 36.0762 54.8648 34.6395 54.1434C33.2028 53.4219 32.0196 52.276 31.09 50.7058C30.1181 49.178 29.6322 47.1833 29.6322 44.7218V16.0752H24.5614V44.7218C24.5614 48.0745 25.2586 50.8755 26.6531 53.1248C28.0475 55.4165 29.8434 57.1353 32.0408 58.2812C34.2381 59.4271 36.5622 60 39.013 60C41.8442 60 44.3584 59.4695 46.5558 58.4085C48.7108 57.3475 50.4011 55.8409 51.6265 53.8887C52.8519 51.979 53.4646 49.7721 53.4646 47.2682ZM54.0351 30.7168C54.0351 27.5338 53.3801 24.8177 52.0702 22.5684C50.7602 20.2767 49.0066 18.5155 46.8093 17.2847C44.612 16.054 42.2034 15.4386 39.5835 15.4386C37.1326 15.4386 34.9987 16.054 33.1817 17.2847C31.3647 18.5155 29.9491 20.2767 28.9349 22.5684C27.8785 24.8177 27.3503 27.5338 27.3503 30.7168C27.3503 33.8573 27.8785 36.5734 28.9349 38.8652C29.9491 41.1569 31.3647 42.9181 33.1817 44.1489C34.9987 45.3796 37.1326 45.995 39.5835 45.995C42.2034 45.995 44.612 45.3796 46.8093 44.1489C49.0066 42.9181 50.7602 41.1569 52.0702 38.8652C53.3801 36.5734 54.0351 33.8573 54.0351 30.7168ZM48.901 30.7168C48.901 32.9661 48.4573 34.8759 47.5699 36.4461C46.6403 38.0164 45.4148 39.2047 43.8936 40.011C42.3724 40.8174 40.7244 41.2206 38.9496 41.2206C37.4707 41.2206 36.0128 40.8174 34.5761 40.011C33.1394 39.2047 31.9562 38.0164 31.0266 36.4461C30.097 34.8759 29.6322 32.9661 29.6322 30.7168C29.6322 29.0192 29.9068 27.5338 30.4561 26.2607C31.0055 24.945 31.745 23.8416 32.6746 22.9504C33.562 22.0592 34.555 21.3801 35.6537 20.9133C36.7523 20.4465 37.851 20.213 38.9496 20.213C40.7244 20.213 42.3724 20.6162 43.8936 21.4226C45.4148 22.2289 46.6403 23.4172 47.5699 24.9875C48.4573 26.5577 48.901 28.4675 48.901 30.7168Z" fill="white"/>
</svg>

<svg xmlns="http://www.w3.org/2000/svg" width="55" height="60" fill="none"><path fill="#fff" d="M.57 31.83h5.135c0 1.4.38 2.695 1.14 3.883.761 1.23 1.839 2.207 3.233 2.928 1.395.764 3.043 1.146 4.944 1.146 1.479 0 2.937-.36 4.374-1.082 1.436-.722 2.62-1.868 3.55-3.438.971-1.528 1.457-3.522 1.457-5.984V.637h5.07v28.646c0 3.353-.697 6.154-2.091 8.403-1.394 2.292-3.19 4.01-5.388 5.157a14.87 14.87 0 0 1-6.972 1.718c-2.831 0-5.345-.53-7.543-1.591-2.155-1.061-3.845-2.568-5.07-4.52C1.183 36.54.57 34.333.57 31.83ZM0 15.278C0 12.095.655 9.38 1.965 7.13c1.31-2.292 3.063-4.053 5.26-5.284C9.424.616 11.833 0 14.453 0c2.45 0 4.584.615 6.401 1.846 1.817 1.23 3.233 2.992 4.247 5.284 1.057 2.25 1.585 4.965 1.585 8.148 0 3.14-.528 5.857-1.585 8.149-1.014 2.291-2.43 4.053-4.247 5.283-1.817 1.231-3.95 1.846-6.401 1.846-2.62 0-5.029-.615-7.226-1.846-2.198-1.23-3.951-2.992-5.261-5.283C.655 21.135 0 18.419 0 15.278Zm5.134 0c0 2.25.444 4.16 1.331 5.73.93 1.57 2.155 2.758 3.677 3.564 1.52.807 3.169 1.21 4.944 1.21 1.478 0 2.936-.403 4.373-1.21 1.437-.806 2.62-1.994 3.55-3.564.93-1.57 1.394-3.48 1.394-5.73 0-1.697-.275-3.183-.824-4.456-.55-1.316-1.289-2.419-2.219-3.31a9.332 9.332 0 0 0-2.979-2.037c-1.098-.467-2.197-.7-3.296-.7-1.774 0-3.422.403-4.944 1.209-1.52.806-2.746 1.995-3.676 3.565-.887 1.57-1.33 3.48-1.33 5.73Z"/><path fill="#fff" d="M53.465 47.268H48.33c0 1.4-.38 2.695-1.14 3.883-.761 1.231-1.838 2.207-3.233 2.929-1.395.764-3.042 1.146-4.944 1.146-1.479 0-2.937-.361-4.373-1.083-1.437-.721-2.62-1.867-3.55-3.437-.972-1.528-1.458-3.523-1.458-5.984V16.075h-5.07v28.647c0 3.352.697 6.154 2.091 8.403 1.395 2.291 3.19 4.01 5.388 5.156A14.87 14.87 0 0 0 39.013 60c2.831 0 5.345-.53 7.543-1.592 2.155-1.06 3.845-2.567 5.07-4.52 1.226-1.909 1.839-4.116 1.839-6.62Zm.57-16.551c0-3.183-.655-5.9-1.965-8.149-1.31-2.291-3.063-4.053-5.26-5.283-2.198-1.231-4.607-1.846-7.227-1.846-2.45 0-4.584.615-6.401 1.846-1.817 1.23-3.233 2.992-4.247 5.283-1.056 2.25-1.585 4.966-1.585 8.149 0 3.14.528 5.856 1.585 8.148 1.014 2.292 2.43 4.053 4.247 5.284 1.817 1.23 3.95 1.846 6.401 1.846 2.62 0 5.029-.615 7.226-1.846 2.198-1.23 3.951-2.992 5.261-5.284s1.965-5.008 1.965-8.148Zm-5.134 0c0 2.25-.444 4.159-1.331 5.73-.93 1.57-2.155 2.758-3.676 3.564-1.522.806-3.17 1.21-4.944 1.21-1.48 0-2.937-.404-4.374-1.21-1.437-.806-2.62-1.995-3.55-3.565-.929-1.57-1.394-3.48-1.394-5.73 0-1.697.275-3.182.824-4.455.55-1.316 1.289-2.42 2.219-3.31a9.332 9.332 0 0 1 2.979-2.038c1.098-.466 2.197-.7 3.296-.7 1.774 0 3.422.403 4.944 1.21 1.52.806 2.746 1.994 3.676 3.565.887 1.57 1.331 3.48 1.331 5.729Z"/></svg>
